X: 1
T:Rocky Mountain Lark
M:6/8
L:1/8
Q:80
C:Roderick MacDonald
S:Jig
K:HP
|: {g}f3{g}f3/2d/2{e}A|
{a}g2B{a}g3/2f/2e|
{g}f2d{g}A3/2d/2f|  !
{g}e3/2{g}c/2{d}A{g}e3/2f/2g|
{g}f3{g}f3/2d/2{e}A|
{a}g2B{a}g3/2f/2e|  !
a3/2f/2{g}d{a}g3/2e/2{g}c|
{g}e3/2d/2{G}d{gdc}d3:| |:
{ag}a3{g}a3/2d/2A|  !
{gf}g2B{g}e3/2f/2g|
{a}f2{AGAG}A{ag}a2f|
{g}e3/2{g}c/2{d}A{g}A3/2{d}c/2e|  !
{ag}a3{g}a3/2d/2A|
{gf}g2B{g}e3/2f/2g|
a3/2f/2{g}d{a}g3/2e/2{g}c|  !
{g}e3/2d/2{G}d{gdc}d3:| |:
{g}f3/2d/2{e}A{g}G3/2{d}B/2g|
{a}f3/2d/2{e}A{g}G3/2{d}B/2e|  !
{g}f3/2d/2{e}A{ag}a2f|
{g}e2{AGAG}A{g}A3/2{d}c/2e|
{g}f3/2d/2{e}A{g}G3/2{d}B/2g|  !
{a}f3/2d/2{e}A{g}G3/2{d}B/2e|
a3/2f/2{g}d{a}g3/2e/2{g}c|
{g}e3/2d/2{G}d{gdc}d3:| |:  !
a3/2g/2aA3/2a/2A|
a/2{g}a3/2Aa3/2f/2{g}d|
a3/2A/2g{a}A/2f3/2{g}A|  !
e/2{g}A3/2ae3/2{g}c/2{d}A|
a3/2g/2aA3/2a/2A|
a/2{g}a3/2A{g}e3/2f/2g|  !
a3/2f/2{g}d{a}g3/2e/2{g}c|
{g}e3/2d/2{G}d{gdc}d3:|
